X:1
T:Title
%%score 1 { 2 | 3 }
L:1/8
Q:1/4=95
M:3/4
K:F
V:1 treble nm="Grand Piano, Staff 1"
V:2 treble nm="Choir Pad, Byefield, CM"
V:3 bass 
V:1
 [FA]2 [FA]>[FA] [FA][FA] | [GB][GB] [FA]4 | [EG]2 [DF][DF] [EG]2 | [FA]2 [EG]4 | %4
w: By~Thomas~Hastings,~1840 * * * *||||
 [EG]2 [EG]>[EG] [EG][EG] | [FA][FA] [FB]4 | [Fc]2 [Fd][Fd] [CF]2 | [CG]>F [CF]4- | [CF]4 z2 |] %9
w: |||||
V:2
 C2 C>C CC | CC C4 | B,2 A,A, C2 | C2[K:treble] C4 | C2 C>C CC | CC D4 | C2[K:bass] B,B, A,2 | %7
 B,>A, A,4- | A,4 z2 |] %9
V:3
 F,2 F,>F, F,F, | E,E, F,4 | C,2 D,D, C,2 | F,2 C,4 | C,2 C,>C, C,C, | F,F, B,,4 | %6
 A,,2 B,,B,, C,2 | C,2 F,4- | F,4 z2 |] %9

